icons/wally.svg

<!--
  - The MIT License (MIT)
  -
  - Copyright (c) 2015-2024 Elior "Mallowigi" Boukhobza
  -
  - Permission is hereby granted, free of charge, to any person obtaining a copy
  - of this software and associated documentation files (the "Software"), to deal
  - in the Software without restriction, including without limitation the rights
  - to use, copy, modify, merge, publish, distribute, sublicense, and/or sell
  - copies of the Software, and to permit persons to whom the Software is
  - furnished to do so, subject to the following conditions:
  -
  - The above copyright notice and this permission notice shall be included in all
  - copies or substantial portions of the Software.
  -
  - THE SOFTWARE IS PROVIDED "AS IS", WITHOUT WARRANTY OF ANY KIND, EXPRESS OR
  - IMPLIED, INCLUDING BUT NOT LIMITED TO THE WARRANTIES OF MERCHANTABILITY,
  - FITNESS FOR A PARTICULAR PURPOSE AND NONINFRINGEMENT. IN NO EVENT SHALL THE
  - AUTHORS OR COPYRIGHT HOLDERS BE LIABLE FOR ANY CLAIM, DAMAGES OR OTHER
  - LIABILITY, WHETHER IN AN ACTION OF CONTRACT, TORT OR OTHERWISE, ARISING FROM,
  - OUT OF OR IN CONNECTION WITH THE SOFTWARE OR THE USE OR OTHER DEALINGS IN THE
  - SOFTWARE.
  -
  -->

<svg  width="16px" height="16px" viewBox="0 0 24 24" fill="none" xmlns="http://www.w3.org/2000/svg">
  <g fill="#AD4646" data-iconColor="Wally">
    <path
        d="M13.3751 14.5C13.3751 14.5 11.9501 15.775 12.0251 16.6375C12.0626 17.5 15.5876 17.3125 12.4751 18.175C11.6126 18.4 11.6501 19.825 12.3251 20.0875C13.0001 20.35 9.73759 19.825 9.77509 18.7375C9.81259 17.6875 10.2626 15.775 9.17509 15.0625C9.10009 15.0625 11.8376 15.8875 13.3751 14.5Z"
    />
    <path
        d="M9.70012 18.6625C9.70012 18.6625 12.5126 20.0125 15.4001 18.4375C17.5376 17.275 18.2126 16 17.9876 15.7375C17.9876 15.7375 18.5126 15.775 19.0001 16.525C19.3751 17.0875 18.7751 18.8125 15.6251 20.125C12.6626 21.325 10.0001 20.575 9.47512 20.05C8.98762 19.525 9.70012 18.6625 9.70012 18.6625V18.6625Z"
    />
    <path
        d="M8.57505 8.0875C8.38755 8.0875 8.23755 7.9375 8.23755 7.75V6.9625C8.23755 6.775 8.38755 6.625 8.57505 6.625C8.76255 6.625 8.91255 6.775 8.91255 6.9625V7.75C8.91255 7.9375 8.76255 8.0875 8.57505 8.0875Z"
    />
    <path
        d="M5.8374 11.1625C5.8374 11.1625 6.7749 12.175 6.2124 13.3C5.8374 14.05 6.2124 15.475 7.5999 15.0625C7.5999 15.0625 5.9874 15.1375 6.6249 13.3375C6.8499 12.6625 6.8499 11.65 5.8374 11.1625V11.1625ZM13.7874 4.52501C13.7874 4.52501 16.4874 5.61251 15.5124 11.5375C15.1749 14.7625 16.7499 14.5 17.1249 14.2C17.4624 13.9375 17.4999 12.8875 18.2874 12.3625C19.0374 11.8 20.9124 10.15 19.9749 8.50001C19.0374 6.85001 18.0624 7.18751 17.4624 6.10001C16.8999 5.12501 16.5249 4.97501 15.8499 4.97501C15.2874 4.97501 14.4999 4.15001 13.7874 4.52501V4.52501Z"
    />
    <path
        d="M13.0375 8.425C12.85 8.425 12.6625 8.275 12.6625 8.05V7.1875C12.6625 7 12.8125 6.8125 13.0375 6.8125C13.225 6.8125 13.4125 6.9625 13.4125 7.1875V8.0875C13.4125 8.275 13.225 8.425 13.0375 8.425V8.425Z"
    />
    <path
        d="M12.4375 6.58749C12.4375 6.58749 11.6125 6.13749 12.2875 5.76249C13.15 5.27499 14.125 6.06249 14.275 6.51249C14.275 6.51249 13.2625 5.57499 12.4375 6.02499C11.9875 6.24999 12.4375 6.58749 12.4375 6.58749V6.58749ZM8.87495 5.87499C8.84548 5.80799 8.79196 5.75446 8.72495 5.72499C8.61245 5.64999 8.42495 5.64999 8.27495 5.68749C8.12495 5.72499 8.01245 5.83749 7.89995 5.91249C7.97495 5.72499 8.08745 5.57499 8.27495 5.49999C8.34995 5.46249 8.46245 5.46249 8.53745 5.46249C8.72495 5.46249 8.91245 5.53749 9.06245 5.64999C9.21245 5.76249 9.28745 5.94999 9.28745 6.13749C9.24995 6.28749 9.17495 6.43749 9.02495 6.47499C8.98745 6.47499 8.94995 6.51249 8.94995 6.47499C8.94995 6.43749 8.98745 6.39999 8.98745 6.36249C9.02495 6.28749 9.02495 6.21249 8.98745 6.09999C8.98745 6.06249 8.94995 5.94999 8.87495 5.87499V5.87499ZM7.56245 13C7.56245 13 8.38745 15.775 11.4625 15.1C14.275 14.4625 14.6875 12.0625 14.6875 12.0625C14.875 12.625 14.0875 15.8875 10.2625 15.5875C7.48745 15.3625 7.56245 13 7.56245 13V13Z"
    />
    <path
        d="M8.16248 14.35C8.16248 14.35 8.04998 15.4375 6.47498 14.875C6.47498 14.875 7.26248 15.775 8.23748 14.8C8.68748 14.3125 8.16248 14.35 8.16248 14.35V14.35ZM5.68748 10.3375C5.49998 10.225 5.49998 9.92498 5.61248 9.73748C5.76248 9.54998 6.06248 9.39998 6.28748 9.28748C7.44998 8.76248 8.68748 8.04998 9.54998 7.03748C9.54998 7.03748 6.92498 8.87498 5.53748 9.36248C4.86248 9.62498 5.68748 10.3375 5.68748 10.3375Z"
    />
    <path
        d="M5.38751 9.775C4.97501 10.1875 5.65001 11.425 6.47501 11.8C7.41251 12.2125 8.76251 10.6 8.50001 10.15C8.20001 9.55 6.25001 8.9125 5.38751 9.775V9.775Z"
    />
    <path
        d="M12.25 23.5C6.0625 23.5 1 18.4375 1 12.25C1 6.0625 6.0625 1 12.25 1C18.4375 1 23.5 6.0625 23.5 12.25C23.5 18.4375 18.475 23.5 12.25 23.5V23.5ZM12.25 2.5C6.8875 2.5 2.5 6.8875 2.5 12.25C2.5 17.6125 6.8875 22 12.25 22C17.6125 22 22 17.6125 22 12.25C22 6.8875 17.65 2.5 12.25 2.5V2.5Z"
    />
    <path
        d="M9.0625 4.71251C9.0625 4.71251 12.475 3.28751 14.95 5.46251C14.95 5.46251 14.875 4.45001 12.9625 4.03751C11.95 3.81251 9.7 3.85001 9.0625 4.71251V4.71251Z"
    />
  </g>
</svg>

<svg xmlns="http://www.w3.org/2000/svg" fill="none" viewBox="0 0 24 24"><g fill="#ad4646" data-iconColor="Wally"><path d="M13.375 14.5s-1.425 1.275-1.35 2.137c.038.863 3.563.675.45 1.538-.862.225-.825 1.65-.15 1.912.675.263-2.587-.262-2.55-1.35.038-1.05.488-2.962-.6-3.674-.075 0 2.663.824 4.2-.563"/><path d="M9.7 18.663s2.813 1.35 5.7-.226c2.138-1.162 2.813-2.437 2.588-2.7 0 0 .525.038 1.012.788.375.563-.225 2.288-3.375 3.6-2.962 1.2-5.625.45-6.15-.075-.487-.525.225-1.387.225-1.387M8.575 8.088a.336.336 0 0 1-.337-.338v-.787a.337.337 0 1 1 .675 0v.787c0 .188-.15.338-.338.338m-2.738 3.075s.938 1.012.375 2.137c-.375.75 0 2.175 1.388 1.762 0 0-1.613.075-.975-1.724.225-.675.225-1.688-.788-2.175m7.95-6.638s2.7 1.088 1.725 7.012c-.337 3.225 1.238 2.963 1.613 2.663.337-.262.375-1.312 1.162-1.837.75-.563 2.625-2.213 1.688-3.863s-1.913-1.312-2.513-2.4c-.562-.975-.937-1.125-1.612-1.125-.563 0-1.35-.825-2.063-.45m-.749 3.9a.376.376 0 0 1-.376-.375v-.863a.376.376 0 0 1 .75 0v.9c0 .188-.187.338-.375.338"/><path d="M12.438 6.587s-.825-.45-.15-.825c.862-.487 1.837.3 1.987.75 0 0-1.013-.937-1.838-.487-.45.225 0 .562 0 .562m-3.563-.712a.3.3 0 0 0-.15-.15c-.113-.075-.3-.075-.45-.038-.15.038-.263.15-.375.225.075-.187.187-.337.375-.412.075-.038.187-.038.262-.038.188 0 .375.075.525.188.15.112.225.3.225.487-.037.15-.112.3-.262.338-.038 0-.075.037-.075 0 0-.038.037-.075.037-.113.038-.075.038-.15 0-.262a.4.4 0 0 0-.112-.225M7.562 13s.825 2.775 3.9 2.1c2.813-.637 3.226-3.037 3.226-3.037.187.562-.6 3.824-4.426 3.524-2.775-.224-2.7-2.587-2.7-2.587"/><path d="M8.162 14.35s-.112 1.088-1.687.525c0 0 .787.9 1.762-.075.45-.488-.075-.45-.075-.45m-2.475-4.012c-.187-.113-.187-.413-.075-.6.15-.188.45-.338.675-.45 1.163-.526 2.4-1.238 3.263-2.25 0 0-2.625 1.837-4.013 2.324-.675.263.15.976.15.976"/><path d="M5.388 9.775c-.413.412.262 1.65 1.087 2.025.938.412 2.288-1.2 2.025-1.65-.3-.6-2.25-1.238-3.112-.375"/><path d="M12.25 23.5C6.063 23.5 1 18.438 1 12.25S6.063 1 12.25 1 23.5 6.063 23.5 12.25 18.475 23.5 12.25 23.5m0-21c-5.362 0-9.75 4.388-9.75 9.75 0 5.363 4.388 9.75 9.75 9.75 5.363 0 9.75-4.387 9.75-9.75 0-5.362-4.35-9.75-9.75-9.75"/><path d="M9.063 4.713s3.412-1.425 5.887.75c0 0-.075-1.013-1.987-1.425-1.013-.225-3.263-.188-3.9.675"/></g></svg>
